X: 41492
T: Tønder. . .The Eternal Friendship
R: reel
M: 4/4
K: Gmajor
|:DE F3 G3|DG A c3 B2|gd e2 cB A2|G2 B3 A3|
DE F3 G3|DG A c3 B2|g2 d e3 cB|1 A2 G2 A4:|2 A2 G2 G4||
gd e2 cB A2|F D2 c2 B3|gd e2 cB A2|G2 B4 A2|
gd e2 cB A2|F2 D2 c2 B2|GF E3 D EF|G B3 A4|
gd e2 cB A2|F2 D2 c2 B2|gd e2 cB A2|G2 B4 A2|
DE F3 G3|DG A2 c2 B2|g3 d e2 cB|A2 G2 G4||

